X: 41
T: Polska efter Johan August Ericsson
S: efter Johan August Ericsson
B: SMUS - katalog M19 bild 15 (nr 41)
B: Jämför SMUS - katalog M19 bild 16 (nr 46)
O: Södermanland
R: Polska
Z: Nils L, 2011-11-18
M: 3/4
L: 1/16
K: D
f4 f2gf e2fe | d2c2 d2e2 f2g2 | a4 A2B2 c2e2 | d2f2 (ed)cB A4 |
f4 f2gf e2fe | d2c2 d2e2 f2g2 | a4 A2B2 c2d2 | e2fe d8 ::
A2c2 e2e2 (cA)ce | d2f2 a4 f2d2 | A2c2 e2e2 (cA)ce | d2f2 a4 f2d2 |
B4 B2GB d2B2 | B2A2 A2A2 d2f2 | f2e2 e2a2 c2e2 | e2fe d8 :|

